X: 37773
T: Sondheim's Frolics
R: jig
M: 6/8
K: Gmajor
|:Bcd gdc|B3 BAG|c3 cde|dGB AB/A/G|
Bcd gdc|B3 BAG|AGB AGF|1 G3 G2A:|2 G2A BGD||
|:BGd efg|d3 dBG|c3 cde|dGB AB/A/G|
BGd efg|d3 dBG|AGB AGF|G3 G2D|
gdc BAG|c3 cde|gdc BAG|ADA ABd|
g3 dBG|e3 efg|AGB AGF|G3 G2A||

